!!!COM: Scarlatti, Domenico
!!!CDT: 1685///-1757///
!!!OTL: Sonata in C Major, K.502, L.3
!!!SCT: K. 502
!!!SCT: L. 003
**kern	**kern	**dynam
*staff2	*staff1	*staff1
*Icemba	*Icemba	*Icemba
*>[A,A,B,B]	*>[A,A,B,B]	*>[A,A,B,B]
*>norep[A,B]	*>norep[A,B]	*>norep[A,B]
*>A	*>A	*>A
*clefF4	*clefG2	*clefG2
*k[]	*k[]	*k[]
*C:	*C:	*C:
*M3/8	*M3/8	*M3/8
*MM108	*MM108	*MM108
=1-	=1-	=1-
8C'^/	8r	.
8r	8ee'\ 8gg'\L	f
8r	8ee'\ 8gg'\J	.
=2	=2	=2
4.r	8ee'^\ 8gg'^\L	.
.	8cc'\ 8ee'\	.
.	8ee'\ 8gg'\J	.
=3	=3	=3
4.r	8ee'^\ 8gg'^\L	.
.	8cc'\ 8ee'\	.
.	8ee'\ 8gg'\J	.
=4	=4	=4
4.r	8ee'^\ 8gg'^\L	.
.	8a'\ 8aa'\	.
.	8dd'\ 8ff'\J	.
=5	=5	=5
4.r	8g'^\ 8gg'^\L	.
.	8cc'\ 8ee'\	.
.	8f'\ 8ff'\J	.
=6	=6	=6
4.r	8b'^\ 8dd'^\L	.
.	8e'\ 8ee'\	.
.	8a'\ 8cc'\J	.
=7	=7	=7
4.r	8f'^/ 8dd'^/L	.
.	8g'/ 8b'/	.
.	8a'/ 8cc'/J	.
=8	=8	=8
8r	8g'\ 8b'\L	.
8G'\ 8g'\L	8gg'\	.
8E'\ 8e'\J	8gg'\J	.
=9	=9	=9
8C'\ 8c'\L	8gg'\L	.
8AA'\ 8A'\	(8.gg^\	.
8FF'\ 8F'\J	.	.
.	32ff\LL	.
.	32ee\JJJ	.
=10	=10	=10
8DD'/ 8D'/	8ff'\L)	.
8F'\ 8f'\L	8ff'\	.
8D'\ 8d'\J	8ff'\J	.
=11	=11	=11
8BB'\ 8B'\L	8ff'\L	.
8GG'\ 8G'\	(8.ff^\	.
8EE'\ 8E'\J	.	.
.	32ee\LL	.
.	32dd\JJJ	.
=12	=12	=12
4CC^/ 4C^/	8ee'\)	.
.	(24ccc\LL	.
.	24bb\	.
.	24aa\J	.
8c^\ 8e^\ [8g^\	8gg'\J)	.
=13	=13	=13
*^	*	*
4.d^/ 4.g^/]	(8G\L	8r	.
.	8A\	(24gg\LL	.
.	.	24ff\	.
.	.	24ee\J	.
.	8B\J)	8dd'\J)	.
=14	=14	=14	=14
4.c^\ 4.g^\	(8e/L	8r	.
.	8d/	(24ccc\LL	.
.	.	24bb\	.
.	.	24aa\J	.
.	8e/J)	8gg'\J)	.
=15	=15	=15	=15
4.d^/ 4.g^/	(8G\L	8r	.
.	8A\	(24gg\LL	.
.	.	24ff\	.
.	.	24ee\J	.
.	8B\J)	8dd'\J)	.
*v	*v	*	*
=16	=16	=16
8c'\ 8g'\	8ee'\L	.
*clefG2	*	*
8e'/ 8ee'/L	8ccc'\	.
8c'/ 8cc'/J	8ccc'\J	.
*clefF4	*	*
=17	=17	=17
8A'\ 8a'\L	8ccc'\L	.
8F#'\ 8f#'\	(8.ccc^\	.
8D'\ 8d'\J	.	.
.	32bb\LL	.
.	32ccc\JJJ	.
=18	=18	=18
8BB'\ 8B'\	8ddd'\L)	.
*clefG2	*	*
8d'/ 8dd'/L	8bb'\	.
8B'/ 8b'/J	8bb'\J	.
*clefF4	*	*
=19	=19	=19
8G'\ 8g'\L	8bb'\L	.
8E'\ 8e'\	(8.bb^\	.
8C'\ 8c'\J	.	.
.	32aa\LL	.
.	32bb\JJJ	.
=20	=20	=20
8AA'\ 8A'\	8ccc'\L)	.
*clefG2	*	*
8c'/ 8cc'/L	8aa'\	.
8A'/ 8a'/J	8aa'\J	.
*clefF4	*	*
=21	=21	=21
8F#\ 8f#\L	8aa'\L	.
8D'\ 8d'\	(8.aa^\	.
8BB'\ 8B'\J	.	.
.	32gg\LL	.
.	32aa\JJJ	.
=22	=22	=22
8GG'/ 8G'/	8bb'\L)	.
(8A\L	(24gg\L	.
.	24ff#\	.
.	24ee\J)	.
8B\J)	8dd'\J	.
=23	=23	=23
*^	*	*
4.A/ 4.d/	(8D\L	8r	.
.	8E\	(24dd\LL	.
.	.	24cc\	.
.	.	24b\J	.
.	8F#\J)	8a'\J)	.
=24	=24	=24	=24
4.G\ 4.d\	(8B/L	8r	.
.	8A/	(24gg\LL	.
.	.	24ff#\	.
.	.	24ee\J	.
.	8B/J)	8dd'\J)	.
=25	=25	=25	=25
4.A^/ 4.d^/	(8D\L	8r	.
.	8E\	(24dd\LL	.
.	.	24cc\	.
.	.	24b\J	.
.	8F#\J)	8a'\J)	.
=26	=26	=26	=26
4.G^\ 4.d^\	(8B/L	8r	.
.	8A/	(24gg\LL	.
.	.	24ff#\	.
.	.	24ee\J	.
.	8B/J)	8dd'\J)	.
=27	=27	=27	=27
4.c^/	(8C\L	24r	.
.	.	(24ee\LL	.
.	.	24ff#\JJ	.
.	8D\	24gg\LL	.
.	.	24aa\	.
.	.	24bb\J	.
.	8E\J)	8ccc'\J)	.
*v	*v	*	*
=28	=28	=28
*	*^	*
8F#\L	(8dd/L	4.dd^\	.
8D\	8ccc/	.	.
8G\J	8bb/J	.	.
*	*v	*v	*
=29	=29	=29
8C'/L	8cc'\ 8aa'\L)	.
8D'/	8b'\ 8gg'\	.
8DD'/J	8a'\ 8ff#'\J	.
=30	=30	=30
4GG^/	8g^\ (8gg^\L	>
.	8dd\)	.
8r	8dd'\J	.
=31	=31	=31
8r	(8dd\L	f
8g'\L	8b-\)	.
8g'\J	8dd'\J	.
=32	=32	=32
*	*^	*
8g'\L	8r	[4.dd^\	.
8g'\	(8ddd/L	.	.
8g'\J	8bb-/J	.	.
=33	=33	=33	=33
(8g\L	8ff#/	4dd\]	.
8e-\)	[4gg/)	.	.
8c'\J	.	8ee-'\	.
=34	=34	=34	=34
(8B-'\L	4gg/]	(8cc#^\L	.
8G\J)	.	8dd\)	.
8r	8r	8dd'\J	.
*	*v	*v	*
=35	=35	=35
8r	(8dd\L	.
8g'\L	8b-\)	.
8g'\J	8dd'\J	.
=36	=36	=36
*	*^	*
8g'\L	8r	[4.dd^\	.
8g'\	(8ddd/L	.	.
8g'\J	8bb-/J	.	.
=37	=37	=37	=37
(8g\L	8ff#^/	4dd\]	.
8e-\)	[4gg/)	.	.
8c'\J	.	8ee-'\	.
=38	=38	=38	=38
(8B-^\L	4gg/]	(8cc#^\L	.
8G\)	.	8dd\)	.
8G'\J	8bb-/	8dd'\J	.
*	*v	*v	*
=39	=39	=39
8C\ (8c\L	8cc\ (8aa\L	<
8D\ 8d\)	8a\ 8ff#\)	.
8E-'\ 8e-'\J	8b-'\ 8gg'\J	.
=40	=40	=40
8C\ (8c\L	8cc\ (8aa\L	.
8D\ 8d\)	8a\ 8ff#\)	.
8E-'\ 8e-'\J	8b-'\ 8gg'\J	.
=41	=41	=41
8C\ (8c\L	8cc\ (8aa\L	.
8D\ 8d\)	8a\ 8ff#\)	.
8E-'\ 8e-'\J	8b-'\ 8gg'\J	.
=42	=42	=42
8C\ (8c\L	8cc\ (8aa\L	f
8D\ 8d\)	8a\ 8ff#\)	.
8E-'\ 8e-'\J	8b-'\ 8gg'\J	.
=43	=43	=43
8C\ (8c\L	8cc\ (8aa\L	.
8D\ 8d\)	8a\ 8ff#\)	.
8E-\ 8e-\J	8b-'\ 8gg'\J	.
=44	=44	=44
8C\ (8c\L	8cc\ (8aa\L	.
8D\ 8d\)	8a\ 8ff#\)	.
8E-'\ 8e-'\J	8b-'\ 8gg'\J	.
=45	=45	=45
*^	*	*
4.d^/	(8D\L	8a'\ 8aa'\	.
.	8En\	(24dd\LL	.
.	.	24cc\	.
.	.	24bn\J)	.
.	8F#\J)	8a'\J	.
=46	=46	=46	=46
4.G^\ 4.d^\	(8B/L	8r	.
.	8A/	(24gg\LL	.
.	.	24ff#\	.
.	.	24ee\J	.
.	8B/J)	8dd'\J)	.
=47	=47	=47	=47
4.A^/ 4.d^/	(8D\L	8r	.
.	8E\	(24dd\LL	.
.	.	24cc\	.
.	.	24b\J	.
.	8F#\J)	8a'\J)	.
=48	=48	=48	=48
4.G^\ 4.d^\	(8B/L	8r	.
.	8A/	(24gg\LL	.
.	.	24ff#\	.
.	.	24ee\J	.
.	8B/J)	8dd'\J)	.
=49	=49	=49	=49
4.c/	8C\L	24r	.
.	.	(24gg\LL	.
.	.	24ff#\JJ	.
.	8D\	24ee\LL	.
.	.	24ff#\	.
.	.	24gg\JJ	.
.	8E\J	24aa\LL	.
.	.	24bb\	.
.	.	24ccc\JJ	.
*v	*v	*	*
=50	=50	=50
*	*^	*
8F#\L	8dd/L	4.dd\	.
8D\	8ccc/	.	.
8G\J	8bb/J)	.	.
*	*v	*v	*
=51	=51	=51
(8C/L	8cc\ (8aa\L	.
8D'/)	8b\ 8gg\)	.
8DD'/J	8a'\ 8ff#'\J	.
=52	=52	=52
*	*^	*
4GG/	16.r	8r	.
.	(32ff#/	.	mf
.	[4gg/)	16.r	.
.	.	(32dd\	.
8g'\	.	16.ee\LL	.
.	.	32b\JJk	.
=53	=53	=53	=53
8g'\L	16.gg/LL]	4.cc\)	.
.	32bb/JJk	.	.
8g\	4aa/	.	.
8f#\J	.	.	.
=54	=54	=54	=54
4G\	16.r	8r	.
.	(32ff#/	.	.
.	[4gg/)	16.r	.
.	.	(32dd\	.
8g'\	.	16.ee\LL	.
.	.	32b\JJk	.
=55	=55	=55	=55
8g'\L	16.gg/LL]	4.cc\)	.
.	32bb'/JJk	.	.
(8g\	4aa/	.	.
8f#\J)	.	.	.
*	*v	*v	*
=56	=56	=56
*^	*	*
4.e/	8G\L	16.r	.
.	.	(32ccc\LLK	.
.	8A\	16.bb\	.
.	.	32ff#\k	.
.	8B\J	16.gg\	.
.	.	32dd\JJk	.
=57	=57	=57	=57
4.c/	8C\L	16.ee\LL	.
.	.	32b\k	.
.	8D\	16.cc\	.
.	.	32g\k	.
.	8E\J	16.a\	.
.	.	32e\JJk	.
*v	*v	*	*
=58	=58	=58
*	*^	*
8D/L	16.f#/LL	4r	.
.	32a/k	.	.
8C/	16.d/	.	.
.	32f#/k	.	.
8BB/J	16.g/	8g\	.
.	32b/JJk	.	.
=59	=59	=59	=59
8C/L	16.a/LL	4g\	.
.	32cc/Jk	.	.
8D'/	8b/)	.	.
8DD'/J	8a'/J	8f#'\	.
=60	=60	=60	=60
(8GG/L	(16.g/LL	8g\L	.
.	32b/Jk	.	.
8CC'/) 8C'/	8a/	8g\)	.
8DD'/ 8D'/J	8a'/J	8g\J	.
*	*v	*v	*
=61	=61	=61
(8EE/ 8E/L	16.r	.
.	32b/	<
8CC'/) 8C'/	8g'/ 8a'/L	.
8DD'/ 8D'/J	8g'/ 8a'/J	.
=62	=62	=62
(8EE/ 8E/L	16.r	.
.	(32b/	.
8CC'/) 8C'/	8g'/ 8a'/L)	.
8DD'/ 8D'/J	8g'/ 8a'/J	.
=63	=63	=63
*	*^	*
(24E/LL	(24a/LL	4g\	.
24D/	24b/	.	.
24C/J	24cc/J	.	.
8D'/)	8b'/)	.	.
8DD'/J	8a/J	8f#'\	.
*	*v	*v	*
=64	=64	=64
(8GG/L	8g\ (8gg\L	f
8CC'/) 8C'/	8g'\ 8a'\)	.
8DD'/ 8D'/J	8g'\ 8a'\J	.
=65	=65	=65
(8EE/ 8E/L	(8gg\L	.
8CC'/) 8C'/	8g'\ 8a'\)	.
8DD'/ 8D'/J	8g'\ 8a'\J	.
=66	=66	=66
(8EE/ 8E/L	(8gg\L	.
8CC'/) 8C'/	8g'\ 8a'\)	.
8DD'/ 8D'/J	8g'\ 8a'\J	.
=67	=67	=67
*	*^	*
(24E/LL	(24a/LL	4g\	.
24D/	24b/	.	.
24C/J)	24cc/J	.	.
8D'/	8b'/)	.	.
8DD'/J	8a/J	8f#'\	.
*	*v	*v	*
=68	=68	=68
4GG/	16.g'\LL	.
.	(32ff#\k	.
.	16.gg\	.
.	32dd\k	.
[8G\	16.ee\	.
.	32b\JJk	.
=69	=69	=69
*^	*	*
4.A/	8G\L]	16.cc\LL	.
.	.	32ee\k	.
.	8F#\	16.dd\	.
.	.	32b\k	.
.	8D\J	16.cc\	.
.	.	32a\JJk	.
=70	=70	=70	=70
*	*	*^	*
4.G/	8GG\L	16.r	16.b\LL)	.
.	.	(32dd/	32dd\k	.
.	8AA\	8..dd/L	16.f#\	.
.	.	.	32a\Jk	.
.	8BB\J	.	(8g\J)	.
.	.	32b/Jkk	.	.
*v	*v	*	*	*
=71	=71	=71	=71
8C/L	16.a/LL)	4g\	.
.	32cc/Jk	.	.
8D'/	8b'/	.	.
8DD'/J	8a'/J	8f#'\	.
*	*v	*v	*
=72	=72	=72
4.GG/	4.g/	.
=73:|!|:	=73:|!|:	=73:|!|:
*>B	*>B	*>B
*^	*^	*
8G/L	[4.G^\	8r	8r	.
8g/	.	([4gg/	8gg\L	p
8fn/J	.	.	8b\J	.
=74	=74	=74	=74	=74
8e/L	4.G\]	4.gg/_	8cc\L)	.
8d/	.	.	(8.cc\	.
8c/J	.	.	.	.
.	.	.	32b\LL	.
.	.	.	32cc\JJJ	.
=75	=75	=75	=75	=75
8G/L	[4.G\	8gg/]	8dd\)	.
8g/	.	([4gg/	8gg\L	.
8f/J	.	.	8b\J	.
=76	=76	=76	=76	=76
8e/L	4.G\]	4.gg/]	8cc\L)	.
8d/	.	.	(8.cc\	.
8c/J	.	.	.	.
.	.	.	32b\LL	.
.	.	.	32cc\JJJ	.
*	*	*v	*v	*
=77	=77	=77	=77
8r	8G'\	8dd'\)	.
*v	*v	*	*
*clefG2	*	*
*^	*	*
(8b/L	4d\	4dd\	<
8a/J	.	.	.
=78	=78	=78	=78
8g#'/)	8e\	8dd'\L	mf
.	.	ggnq/	.
(8b/L	4d\	8.ff\	.
8a/J	.	.	.
.	.	16ee\Jk	.
=79	=79	=79	=79
8g#'/)	8e'\	8dd'\L	<
.	.	ggnq/	.
(8b/L	4d\	8.ff\	.
8a/J	.	.	.
.	.	16ee\Jk	.
=80	=80	=80	=80
8g#/)	8e'\	8dd'\L	.
(8b/L	4d\	8.bb\	.
8a/J	.	.	.
.	.	16aa\Jk	.
=81	=81	=81	=81
*	*	*^	*
8g#/)	8e'\	8b/	16.gg#\LL	.
.	.	.	32ffn\k	.
*v	*v	*	*	*
*clefF4	*	*	*
*^	*	*	*
4r	(8E\L	4r	16.ee\	.
.	.	.	32dd\k	.
.	8G#\J	.	16.cc\	.
.	.	.	32b\JJk	.
*v	*v	*	*	*
*	*v	*v	*
=82	=82	=82
8A\L)	16.cc\LL	f
.	32gg#\k	.
8A'\ 8c'\ 8e'\	16.aa\	.
.	32ee\k	.
8A'\ 8c'\ 8e'\J	16.ff\	.
.	32cc\JJk	.
=83	=83	=83
*^	*	*
4.B^/ 4.e^/	8A\L	8dd'\L	.
.	8G#\	(8.bb\	.
.	8E\J	.	.
.	.	32aa\LL	.
.	.	32bb\JJJ	.
*v	*v	*	*
=84	=84	=84
8A'\ 8c'\ 8e'\L	16.ccc\LL	f
.	32gg#\k	p
8A'\ 8c'\ 8e'\	16.aa\	.
.	32ee\k	.
8A\ 8c\ 8e\J	16.ff\	.
.	32cc\JJk	.
=85	=85	=85
*^	*	*
4.B^/ 4.e^/	8A\L	8dd'\L)	.
.	8G#\	(8.bb\	<
.	8E\J	.	.
.	.	32aa\LL	.
.	.	32bb\JJJ	.
*v	*v	*	*
=86	=86	=86
8A'\ 8c'\L	16.ccc\LL	f
.	32ff#'\k	.
8A'\ 8c'\	16.gg\	.
.	32dd\k	.
8Gn\ 8c\J	16.ee-\	.
.	32cc\JJk	.
=87	=87	=87
*^	*	*
4.c^/	8F#\L	8dd'\L)	.
.	8E\	(8.aa\	.
.	8D\J	.	.
.	.	32gg\LL	.
.	.	32aa\JJJ	.
*v	*v	*	*
=88	=88	=88
8G'\ 8B-'\L	16.bb-\LL	f
.	32ff#\K	p
8G'\ 8B-'\ 8d'\	16.gg\	.
.	32dd\k	.
8G'\ 8B-'\ 8d'\J	16.ee-\	.
.	32b-\JJk	.
=89	=89	=89
*^	*	*
4.A^/ 4.d^/	8G\L	8cc'\L)	.
.	8F#\	(8.aa\	<
.	8D\J	.	.
.	.	32gg\LL	.
.	.	32aa\JJJ	.
*v	*v	*	*
=90	=90	=90
8G'\ 8B-'\L	16.bb-\LL	f
.	32een\k	.
8G'\ 8B-'\	16.ff\	.
.	32cc\k	.
8Fn\ 8B-\J	16.dd\	.
.	32b-\JJk	.
=91	=91	=91
*^	*	*
4.B-/	8E\L	8cc'\L)	.
.	8D\	(8.gg\	.
.	8C\J	.	.
.	.	32ff\LL	.
.	.	32gg\JJJ	.
*v	*v	*	*
=92	=92	=92
8F'\ 8A'\L	16.aa\LL	f
.	32ee\k)	p
8F'\ 8A'\ 8c'\	16.ff\	.
.	32cc\k	.
8F'\ 8A'\ 8c'\J	16.dd\	.
.	32a\JJk	.
=93	=93	=93
*^	*	*
(4.G/ 4.c/	8F\L	8b-'\L	.
.	8E\	(8.gg\	<
.	8C\J)	.	.
.	.	32ff\LL	.
.	.	32gg\JJJ)	.
*v	*v	*	*
=94	=94	=94
*M2/4	*M2/4	*M2/4
*^	*	*
8F/L	(4F\	(8.aa\L	p
8f/J)	.	.	.
.	.	16ccc'\Jk)	.
8E/L	(4E\	(8.gg\L	.
8e/J)	.	.	.
.	.	16ccc\Jk)	.
=95	=95	=95	=95
8D/L	(4D\	(8.ff\L	.
8d/J)	.	.	.
.	.	16ccc\Jk)	.
8C/L	(4C\	(8.ee\L	.
8c/J)	.	.	.
.	.	16ccc\Jk)	.
=96	=96	=96	=96
8BBn/L	(4BBn\	(8.dd\L	.
8B/J)	.	.	.
.	.	16bb\Jk)	.
8AA/L	(4AA\	(8.cc\L	.
8A/J)	.	.	.
.	.	16ccc\Jk)	.
*v	*v	*	*
=97	=97	=97
8GG'\ 8G'\L	8b'\L	f
8G'\ 8g'\J	8gg'\J	.
8FF'\ 8F'\L	(32aa\LLL	.
.	32gg\J	.
.	16ff\J)	.
8F'\ 8f'\J	8aa'\J	.
=98	=98	=98
8EE'\ 8E'\L	(32gg\LLL	.
.	32ff\J	.
.	16ee\J)	.
8E'\ 8e'\J	8gg'\J	.
8DD'\ 8D'\L	(32ff\LLL	.
.	32ee\J	.
.	16dd\J)	.
8D'\ 8d'\J	8ff'\J	.
=99	=99	=99
8CC'\ 8C'\L	(32ee\LLL	.
.	32dd\J	.
.	16cc\J)	.
8C'\ 8c'\J	8ee'\J	.
8BBB'\ 8BB'\L	(32dd\LLL	.
.	32cc\J	.
.	16b\J)	.
8BB'\ 8B'\J	8dd'\J	.
=100	=100	=100
8AAA/ 8AA/L	(32cc\LLL	.
.	32b\J	.
.	16a\J)	.
8AA'/ 8A'/J	8cc'\J	.
8GGG'/ 8GG'/L	(32b\LLL	.
.	32a\J	.
.	16g\J)	.
8GG'/ 8G'/J	8dd'\J	.
=101	=101	=101
*M3/8	*M3/8	*M3/8
8GGG'/ 8GG'/L	(16.b\LL	p
.	32dd\k	<
8AAA'/ 8AA'/	16.cc\	.
.	32ee\k	.
8BBB'/ 8BB'/J	16.dd\	.
.	32ff\JJk	.
=102	=102	=102
8CC'/ 8C'/L	16.ee\LL	.
.	32gg\k	.
8DD'/ 8D'/	16.ff\	.
.	32aa\k	.
8EE'/ 8E'/J	16.gg\	.
.	32bb\JJk	.
=103	=103	=103
8FF'/ 8F'/L	16.aa\LL	f
.	32gg\k	.
8GG'/ 8G'/	16.ff\	.
.	32ee\k	.
8AA/ 8A/J	16.dd\	.
.	32cc\JJk	.
=104	=104	=104
*M2/4	*M2/4	*M2/4
8GG'\ 8G'\L	([8dd\L)	p
8G'\ 8a'\J	32dd\LL]	.
.	32cc\	.
.	32dd\	.
.	32ee\JJJ)	<
8FF'\ 8F'\L	([8dd\L	.
8F'\ 8f'\J	32dd\LL]	.
.	32cc\	.
.	32dd\	.
.	32ee\JJJ)	.
=105	=105	=105
8EE'\ 8E'\L	([8dd\L	.
8E'\ 8e'\J	32dd\LL]	.
.	32cc\	.
.	32dd\	.
.	32ee\JJJ)	.
8DD'\ 8D'\L	([8dd\L	.
8D'\ 8d'\J	32dd\LL]	.
.	32cc\	.
.	32dd\	.
.	32ee\JJJ)	.
=106	=106	=106
8CC'\ 8C'\L	([8dd\L	.
8C'\ 8c'\J	32dd\LL]	.
.	32cc\	.
.	32dd\	.
.	(32ee\JJJ)	.
8BBB'\ 8BB'\L	[8dd\L	.
8BB'\ 8B'\J	32dd\LL]	.
.	32cc\	.
.	32dd\	.
.	32ee\JJJ	.
=107	=107	=107
8AAA'\ 8AA'\L	[8dd\L	.
8AA'\ 8A'\J	32dd\LL]	.
.	32cc\	.
.	32dd\	.
.	32ee\JJJ)	.
8GGG'\ 8GG'\L	([8dd\L	.
8GG'\ 8G'\J	32dd\LL]	.
.	32ee\	.
.	32dd\	.
.	32cc\JJJ	.
=108	=108	=108
*M3/8	*M3/8	*M3/8
8GGG'/ 8GG'/L	16.b\LL	f
.	32dd\k	.
8AAA'/ 8AA'/	16.cc\	.
.	32ee\k	.
8BBB'/ 8BB'/J	16.dd\	.
.	32ff\JJk	.
=109	=109	=109
*	*^	*
8CC'/ 8C'/L	16.r	16.ee\LL)	.
.	(32gg/	32gg\k	.
8DD'/ 8D'/	8..gg/L	16.b\	.
.	.	32dd\Jk	.
8EE'/ 8E'/J	.	(8cc\J)	.
.	32ee/Jkk	.	.
=110	=110	=110	=110
(8FF/ 8F/L	16.dd/LL)	4cc\	.
.	32ff/Jk	.	.
8G'/)	8ee'/	.	.
8GG'/J	8dd'/J	8b\	.
*	*v	*v	*
=111	=111	=111
4C/	16r	.
.	16bb\LL	.
.	(16.ccc\	.
.	32gg\k	.
*clefG2	*	*
8cc'\	16.aa\	.
.	32ee\JJk	.
=112	=112	=112
8cc'\L	16.ff\LL	.
.	32eee\JJk)	.
(8cc\	4ddd\	.
8b\J)	.	.
=113	=113	=113
4c/	16.r	.
.	(32bb\LLK	.
.	16.ccc\	.
.	32gg\k	.
8cc'\	16.aa\	.
.	32ee\JJk	.
=114	=114	=114
8cc'\L	16.ff\LL	.
.	32eee\JJk)	.
(8cc\	4ddd\	.
8b\J)	.	.
=115	=115	=115
*^	*	*
4.cc/	8c\L	16.r	.
.	.	(32fff\LLK	.
.	8d\	16.eee\	.
.	.	32bb\k	.
.	8e\J	16.ccc\	.
.	.	32gg\JJk	.
*v	*v	*	*
*clefF4	*	*
=116	=116	=116
*^	*	*
4.f/	8F\L	16.aa\LL	.
.	.	32ee\k	.
.	8G\	16.ff\	.
.	.	32cc\k	.
.	8A\J	16.dd\	.
.	.	32a\JJk	.
*v	*v	*	*
=117	=117	=117
8G\L	16.b\LL	.
.	32dd\k	.
8F\	16.g\	.
.	32b\k	.
8E\J	16.cc\	.
.	32ee\JJk	.
=118	=118	=118
8F\L	16.dd\LL	.
.	32ff\k	.
8G'\	16.ee\	.
.	32dd\k	.
8GG'\J	16.cc\	.
.	32b\JJk	.
=119	=119	=119
*	*^	*
(8CC/ 8C/L	16.cc/LL	8cc\L	.
.	32ee/Jk	.	.
8FF'/) 8F'/	8dd'/)	8cc\	.
8GG'/ 8G'/J	8dd'/J	8cc\J	.
*	*v	*v	*
=120	=120	=120
8AA\ (8A\L	16.r	.
.	(32ee\	<
8FF'\ 8F'\)	8cc'\ 8dd'\L)	.
8GG'\ 8G'\J	8cc'\ 8dd'\J	.
=121	=121	=121
8AA\ (8A\L	16.r	.
.	(32ee\	.
8FF'\ 8F'\)	8cc'\ 8dd'\L)	.
8GG'\ 8G'\J	8cc'\ 8dd'\J	.
=122	=122	=122
*	*^	*
(24A\LL	(24dd/LL	4cc\	.
24G\	24ee/	.	.
24F\J	24ff/J	.	.
8G'\)	8ee'/)	.	.
8GG'\J	8dd'/J	8b'\	.
*	*v	*v	*
=123	=123	=123
8CC/ 8C/L	(8ccc\L	f
8FF'/ 8F'/	8cc'\ 8dd'\)	.
8GG'/ 8G'/J	8cc'\ 8dd'\J	.
=124	=124	=124
8AA\ (8A\L	(8ccc\L	.
8FF'\ 8F'\)	8cc'\ 8dd'\)	.
8GG'\ 8G'\J	8cc'\ 8dd'\J	.
=125	=125	=125
8AA\ (8A\L	(8ccc\L	.
8FF'\ 8F'\)	8cc'\ 8dd'\)	.
8GG'\ 8G'\J	8cc'\ 8dd'\J	.
=126	=126	=126
*	*^	*
(24A\LL	(24dd/LL	4cc\	.
24G\	24ee/	.	.
24F\J	24ff/J	.	.
8G'\)	8ee'/)	.	.
8GG'\J	8dd'/J	8b'\	.
*	*v	*v	*
=127	=127	=127
4CC/ 4C/	16.cc'\LL	.
.	(32bb\k	.
.	16.ccc\	.
.	32gg\k	.
[8c\	16.aa\	.
.	32ee\JJk	.
=128	=128	=128
*^	*	*
4.d/	8c\L]	16.ff\LL	.
.	.	32aa\k	.
.	8B\	16.gg\	.
.	.	32ee\k	.
.	8G\J	16.ff\	.
.	.	32dd\JJk	.
=129	=129	=129	=129
*	*	*^	*
4.c/	8C\L	4r	16.ee\LL)	.
.	.	.	(32gg\k	.
.	8D\	.	16.b\	.
.	.	.	32dd\Jk	.
.	8E\J	16.cc/LL)	(8cc\J	.
.	.	32ee/JJk	.	.
*v	*v	*	*	*
=130	=130	=130	=130
8F\L	16.dd/LL	4cc\	.
.	32ff/Jk	.	.
8G'\	8ee'/)	.	.
8GG'\J	8dd'/J	8b'\	.
*	*v	*v	*
=131	=131	=131
4.CC/	4.cc\	.
==:|!	==:|!	==:|!
*-	*-	*-
!!!ENC: Craig Stuart Sapp
!!!END: 2008/01/22
